X:1
T:Title
%%score [ ( 1 2 ) ( 3 4 ) ]
L:1/8
Q:1/4=120
M:3/4
K:G
V:1 treble nm="Midi_74" snm=" "
V:2 treble 
V:3 bass nm="Midi_74"
V:4 bass 
V:1
 G2 G2 A2 | F3 G A2 |"^The National Anthem" B2 B2 c2 | B3 A G2 | A2 G2 F2 | G6 || d2 d2 d2 | %7
w: God save our|gra- cious Queen,|long live our|no- ble Queen,|God save the|Queen.|Send her vic-|
w: |||||||
w: Thy choi- cest|gifts in store|on her be|pleased to pour,|long may she|reign.|May she de-|
 d3 c B2 | c2 c2 c2 | c3 B A2 | B2 cB AG | B3 c d2 | ec B2 A2 | G6 |] %14
w: to- ri- ous,|hap- py and|glo- ri- ous,|long to * reign *|ov- er us:|God * save the|Queen.|
w: |||||||
w: fend our laws,|and ev- er|give us cause|to sing * with *|heart and voice,|God * save the|Queen.|
V:2
 D2 D2 E2 | D3 ^C D2 | G2 G2 A2 | G3 F E2 | E2 D2 D2 | D6 || G2 G2 G2 | G3 F G2 | F2 A2 F2 | %9
w: |||||||||
w: O Lord our|God, a- rise,|scat- ter our|e- ne- mies,|and make them|fall;|con- found their|po- li- tics,|frus- trate their|
 F3 G F2 | G2 FG D2 | G3 F G2 | GA G2 F2 | G6 |] %14
w: |||||
w: kna- vish tricks;|on thee * our|hopes we fix:|God * save us|all.|
V:3
 B,2 G,2 C2 | A,3 A, A,2 | D2 E2 E2 | D3 C B,2 | C2 B,2 A,2 | B,6 || B,2 D2 B,2 | B,3 A, G,2 | %8
 D2 D2 D2 | D3 D D2 | D2"^This edition produced by Andrew Sims 2017" D2 D2 | D3 C B,2 | CE D2 DC | %13
 B,6 |] %14
V:4
 G,2 B,,2 C,2 | D,3 E, F,2 | G,2 E,2 C,2 | D,3 ^D, E,2 | C,2 D,2 D,2 | G,,6 || G,,2 B,,2 D,2 | %7
 G,3 D, G,2 | D,2 F,2 A,2 | D,3 G, D,2 | G,2 A,G, F,E, | D,C, B,,A,, G,,2 | C,2 D,2 D,2 | G,,6 |] %14

